X:1
T:title
M:4/4
Q:120
L:1/8
R:Reel
K:C
 _DB3 ^A3 _c |  ^b4 ^F4 | b' _B2 _E3 ^D ^A |  ^C2 _Ee2 ^c'2 ^d |  ^d3 _D4 ^F |  _E4 _c4 |  ^e'4g2 _D2 |  ^c2 _g'e4 _g' | 